hoodie_driver/public/novapost.svg

<svg width="164" height="59" viewBox="0 0 164 59" fill="none" xmlns="http://www.w3.org/2000/svg">
<path fill-rule="evenodd" clip-rule="evenodd" d="M71.791 10.0087C71.791 10.0087 71.791 10.0087 75.2405 10.0087C76.4974 10.0087 77.1306 10.6342 77.1306 12.0464C77.1306 12.0464 77.1306 12.0464 77.1306 17.0508C77.1306 17.0508 77.1306 17.0508 83.8877 17.0508C83.8877 17.0508 83.8877 17.0508 83.8877 12.0464C83.8877 10.6342 84.5115 10.0087 85.9291 10.0087C85.9291 10.0087 85.9291 10.0087 89.2273 10.0087C89.2273 10.0087 89.2273 10.0087 89.2273 13.2975C89.2273 13.2975 89.2273 13.2975 87.8192 13.2975L87.6585 13.4586C87.6585 13.4586 87.6585 13.4586 87.6585 27.5428C87.6585 27.5428 87.6585 27.5428 83.8877 27.5428C83.8877 27.5428 83.8877 27.5428 83.8877 20.5007C83.8877 20.5007 83.8877 20.5007 77.1306 20.5007C77.1306 20.5007 77.1306 20.5007 77.1306 27.5428C77.1306 27.5428 77.1306 27.5428 73.3598 27.5428C73.3598 27.5428 73.3598 27.5428 73.3598 13.4586C73.3598 13.4586 73.3598 13.2975 73.1992 13.2975C73.1992 13.2975 73.1992 13.2975 71.791 13.2975C71.791 13.2975 71.791 13.2975 71.791 10.0087Z" fill="#ED1C24"/>
<path fill-rule="evenodd" clip-rule="evenodd" d="M99.122 9.69589L99.2071 9.70537V13.3165L99.122 13.2975C96.2963 13.2975 94.0943 15.648 94.0943 18.6241C94.0943 21.7518 96.2963 24.254 99.122 24.254L99.2071 24.235V27.8461L99.122 27.8556C94.0943 27.8556 90.0117 23.7895 90.0117 18.6241C90.0117 13.6103 94.0943 9.69589 99.122 9.69589Z" fill="#ED1C24"/>
<path fill-rule="evenodd" clip-rule="evenodd" d="M99.2071 9.70538L100.955 9.87599C105.104 10.6911 108.232 14.2358 108.232 18.6241C108.232 23.1356 105.104 26.8225 100.955 27.666L99.2071 27.8461V24.235L101.126 23.818C102.978 22.965 104.31 20.9651 104.31 18.6241C104.31 16.3873 102.978 14.5107 101.126 13.7145L99.2071 13.3165V9.70538Z" fill="#ED1C24"/>
<path fill-rule="evenodd" clip-rule="evenodd" d="M109.017 10.0087C109.017 10.0087 109.017 10.0087 114.281 10.0087H116.795V13.2975H116.558C116.246 13.2975 115.613 13.2975 114.356 13.2975C114.356 13.2975 114.356 13.2975 114.356 16.8991C114.356 16.8991 114.356 16.8991 115.424 16.8991H116.795V20.0268H115.991C115.594 20.0268 115.065 20.0268 114.356 20.0268C114.356 20.0268 114.356 20.0268 114.356 23.9412C114.356 24.1023 114.356 24.1023 114.517 24.1023C114.517 24.1023 114.517 24.1023 115.642 24.1023H116.795V27.5428H116.464C115.897 27.5428 114.753 27.5428 112.476 27.5428C111.219 27.5428 110.595 26.9173 110.595 25.5051V13.2975C110.595 13.2975 110.595 13.2975 109.017 13.2975C109.017 13.2975 109.017 13.2975 109.017 10.0087Z" fill="#ED1C24"/>
<path fill-rule="evenodd" clip-rule="evenodd" d="M116.795 10.0087H116.87C120.329 10.0087 122.37 11.8853 122.37 14.7097C122.37 16.4252 121.586 17.5247 120.802 18.3113C122.219 18.9369 123.155 20.5007 123.155 22.2162C123.155 25.5051 120.641 27.5428 117.031 27.5428C117.031 27.5428 117.031 27.5428 116.965 27.5428H116.795V24.1023H117.182C118.439 24.1023 119.233 23.3157 119.233 22.0646C119.233 20.8135 118.439 20.0268 117.182 20.0268C117.182 20.0268 117.182 20.0268 116.832 20.0268H116.795V16.8991H116.87C117.976 16.8991 118.6 16.1124 118.6 15.0225C118.6 13.923 117.976 13.2975 116.87 13.2975C116.87 13.2975 116.87 13.2975 116.832 13.2975H116.795V10.0087Z" fill="#ED1C24"/>
<path fill-rule="evenodd" clip-rule="evenodd" d="M130.384 10.0087C130.384 10.0087 130.384 10.0087 131.972 10.0087H132.265V15.0225C132.114 15.3353 131.953 15.7997 131.953 16.2736C131.953 16.2736 131.953 16.2736 130.696 19.8752C130.696 19.8752 130.696 19.8752 132.029 19.8752H132.265V23.1545H131.415C130.933 23.1545 130.384 23.1545 129.761 23.1545C129.761 23.1545 129.761 23.1545 128.655 25.9789C128.343 27.0689 127.719 27.5428 126.462 27.5428C126.462 27.5428 126.462 27.5428 124.1 27.5428C124.1 27.5428 124.1 27.5428 124.1 24.1023C124.1 24.1023 124.1 24.1023 124.884 24.1023C125.206 24.1023 125.206 24.1023 125.357 23.9412C125.357 23.9412 125.357 23.9412 130.384 10.0087Z" fill="#ED1C24"/>
<path fill-rule="evenodd" clip-rule="evenodd" d="M132.265 10.0087H134.155C134.155 10.0087 134.155 10.0087 139.183 23.9412C139.334 24.1023 139.334 24.1023 139.646 24.1023C139.646 24.1023 139.646 24.1023 140.279 24.1023C140.279 24.1023 140.279 24.1023 140.279 27.5428C140.279 27.5428 140.279 27.5428 138.077 27.5428C136.82 27.5428 136.197 27.0689 135.875 25.8178C135.875 25.8178 135.875 25.8178 134.779 23.1545C134.779 23.1545 134.779 23.1545 132.662 23.1545H132.265V19.8752H133.834C133.834 19.8752 133.834 19.8752 132.586 16.2736C132.586 15.7997 132.426 15.3353 132.265 15.0225V10.0087Z" fill="#ED1C24"/>
<path fill-rule="evenodd" clip-rule="evenodd" d="M71.791 32.5471C71.791 32.5471 71.791 32.5471 85.4565 32.5471C86.7135 32.5471 87.4978 33.1727 87.4978 34.5849C87.4978 34.5849 87.4978 34.5849 87.4978 46.4797C87.4978 46.6313 87.4978 46.6313 87.6585 46.6313C87.6585 46.6313 87.6585 46.6313 88.9154 46.6313C88.9154 46.6313 88.9154 46.6313 88.9154 50.0813C88.9154 50.0813 88.9154 50.0813 85.6172 50.0813C84.1996 50.0813 83.5759 49.4557 83.5759 48.0435C83.5759 48.0435 83.5759 48.0435 83.5759 35.9971C83.5759 35.9971 83.5759 35.836 83.4152 35.836C83.4152 35.836 83.4152 35.836 77.1306 35.836C77.1306 35.836 77.1306 35.836 77.1306 50.0813C77.1306 50.0813 77.1306 50.0813 73.3598 50.0813C73.3598 50.0813 73.3598 50.0813 73.3598 35.836C73.3598 35.836 73.3598 35.836 71.791 35.836C71.791 35.836 71.791 35.836 71.791 32.5471Z" fill="#ED1C24"/>
<path fill-rule="evenodd" clip-rule="evenodd" d="M98.8102 32.2344L98.8858 32.2439V35.8549L98.8102 35.836C95.975 35.836 93.7825 38.1865 93.7825 41.1626C93.7825 44.2903 95.975 46.7924 98.8102 46.7924L98.8858 46.7735V50.3846L98.8102 50.3941C93.7825 50.3941 89.851 46.3186 89.851 41.1626C89.851 36.1488 93.7825 32.2344 98.8102 32.2344Z" fill="#ED1C24"/>
<path fill-rule="evenodd" clip-rule="evenodd" d="M98.8857 32.2439L100.691 32.4145C104.915 33.2296 107.92 36.7743 107.92 41.1626C107.92 45.6741 104.915 49.361 100.691 50.2045L98.8857 50.3846V46.7735L100.88 46.3565C102.76 45.5035 103.998 43.5036 103.998 41.1626C103.998 38.9258 102.76 37.0492 100.88 36.253L98.8857 35.855V32.2439Z" fill="#ED1C24"/>
<path fill-rule="evenodd" clip-rule="evenodd" d="M108.705 32.5471C108.705 32.5471 108.705 32.5471 112.164 32.5471C113.421 32.5471 114.044 33.1727 114.044 34.5849C114.044 34.5849 114.044 34.5849 114.044 46.4797C114.044 46.6313 114.044 46.6313 114.205 46.6313C114.205 46.6313 114.205 46.6313 118.76 46.6313C118.76 46.6313 118.76 46.6313 118.76 32.5471C118.76 32.5471 118.76 32.5471 122.531 32.5471C122.531 32.5471 122.531 32.5471 122.531 46.6313C122.531 46.6313 122.531 46.6313 127.086 46.6313C127.247 46.6313 127.247 46.6313 127.247 46.4797C127.247 46.4797 127.247 46.4797 127.247 34.5849C127.247 33.1727 127.871 32.5471 129.127 32.5471C129.127 32.5471 129.127 32.5471 132.586 32.5471C132.586 32.5471 132.586 32.5471 132.586 35.836C132.586 35.836 132.586 35.836 131.169 35.836C131.008 35.836 131.008 35.9971 131.008 35.9971C131.008 35.9971 131.008 35.9971 131.008 48.0435C131.008 49.4557 130.384 50.0813 129.127 50.0813C129.127 50.0813 129.127 50.0813 112.315 50.0813C110.907 50.0813 110.274 49.4557 110.274 48.0435C110.274 48.0435 110.274 48.0435 110.274 35.9971C110.274 35.9971 110.274 35.836 110.122 35.836C110.122 35.836 110.122 35.836 108.705 35.836C108.705 35.836 108.705 35.836 108.705 32.5471Z" fill="#ED1C24"/>
<path fill-rule="evenodd" clip-rule="evenodd" d="M135.563 32.5471C135.563 32.5471 135.563 32.5471 147.348 32.5471C148.766 32.5471 149.238 33.1727 149.238 34.4238C149.238 34.4238 149.238 34.4238 149.238 37.3998H145.779C145.779 37.3998 145.779 37.3998 145.779 35.9971C145.779 35.836 145.779 35.836 145.619 35.836C145.619 35.836 145.619 35.836 143.426 35.836C143.426 35.836 143.426 35.836 143.426 50.0813C143.426 50.0813 143.426 50.0813 139.646 50.0813C139.646 50.0813 139.646 50.0813 139.646 35.836C139.646 35.836 139.646 35.836 137.453 35.836C137.293 35.836 137.293 35.836 137.293 35.9971C137.293 35.9971 137.293 35.9971 137.293 37.3998C137.293 37.3998 137.293 37.3998 133.834 37.3998C133.834 37.3998 133.834 37.3998 133.834 34.4238C133.834 33.1727 134.306 32.5471 135.563 32.5471Z" fill="#ED1C24"/>
<path fill-rule="evenodd" clip-rule="evenodd" d="M154.105 32.5471C154.105 32.5471 154.105 32.5471 155.693 32.5471H155.986V37.561C155.825 37.8737 155.674 38.3382 155.674 38.8121C155.674 38.8121 155.674 38.8121 154.417 42.4137C154.417 42.4137 154.417 42.4137 155.74 42.4137H155.986V45.693H155.135C154.653 45.693 154.105 45.693 153.472 45.693C153.472 45.693 153.472 45.693 152.376 48.3563C152.064 49.6074 151.431 50.0813 150.174 50.0813C150.174 50.0813 150.174 50.0813 147.821 50.0813C147.821 50.0813 147.821 50.0813 147.821 46.6313C147.821 46.6313 147.821 46.6313 148.605 46.6313C148.926 46.6313 148.926 46.6313 149.078 46.4797C149.078 46.4797 149.078 46.4797 154.105 32.5471Z" fill="#ED1C24"/>
<path fill-rule="evenodd" clip-rule="evenodd" d="M155.986 32.5471H157.867C157.867 32.5471 157.867 32.5471 162.904 46.4797C163.055 46.6313 163.055 46.6313 163.376 46.6313H164C164 46.6313 164 46.6313 164 50.0813C164 50.0813 164 50.0813 161.798 50.0813C160.541 50.0813 159.917 49.6074 159.596 48.3563C159.596 48.3563 159.596 48.3563 158.5 45.693C158.5 45.693 158.5 45.693 156.383 45.693H155.986V42.4137H157.555C157.555 42.4137 157.555 42.4137 156.298 38.8121C156.298 38.3382 156.147 37.8737 155.986 37.561V32.5471Z" fill="#ED1C24"/>
<path fill-rule="evenodd" clip-rule="evenodd" d="M47.5788 17.4678C47.7583 17.4109 47.9946 17.5247 48.2309 17.8374C48.2309 17.8374 48.2309 17.8374 58.91 28.32C59.5337 28.9455 59.5337 29.8933 58.91 30.3578C58.91 30.3578 58.91 30.3578 48.2309 41.0014C47.9946 41.3142 47.7583 41.39 47.5788 41.2953C47.3992 41.2005 47.2858 40.9256 47.2858 40.5276V18.1502C47.2858 17.7616 47.3992 17.5247 47.5788 17.4678Z" fill="#ED1C24"/>
<path fill-rule="evenodd" clip-rule="evenodd" d="M29.3109 0H30.0669L30.7946 0.303294C30.7946 0.303294 30.7946 0.303294 41.7856 11.2598C42.2581 11.8853 42.0974 12.3592 41.313 12.3592C41.313 12.3592 41.313 12.3592 36.7579 12.3592C35.9735 12.3592 35.3498 12.9847 35.3498 13.7714C35.3498 13.7714 35.3498 13.7714 35.3498 21.9035C35.3498 22.6901 34.7166 23.3157 33.7715 23.3157C33.7715 23.3157 33.7715 23.3157 25.7669 23.3157C24.9825 23.3157 24.3493 22.6901 24.3493 21.9035C24.3493 21.9035 24.3493 21.9035 24.3493 13.7714C24.3493 12.9847 23.7256 12.3592 22.9317 12.3592H18.0647C17.2803 12.3592 17.1196 11.8853 17.5922 11.2598C17.5922 11.2598 17.5922 11.2598 28.5926 0.303294L29.3109 0Z" fill="#ED1C24"/>
<path fill-rule="evenodd" clip-rule="evenodd" d="M12.092 17.2308C12.2904 17.3256 12.4133 17.6005 12.4133 17.9985V40.8403C12.4133 41.2384 12.2904 41.4753 12.092 41.5512C11.903 41.627 11.6289 41.5512 11.3076 41.3142C11.3076 41.3142 11.3076 41.3142 0.467802 30.3577C-0.155934 29.8933 -0.155934 28.9455 0.467802 28.32C0.467802 28.32 0.467803 28.32 11.3076 17.5246C11.6289 17.2119 11.903 17.1361 12.092 17.2308Z" fill="#ED1C24"/>
<path fill-rule="evenodd" clip-rule="evenodd" d="M25.7669 35.2104C25.7669 35.2104 25.7669 35.2104 33.7715 35.2104C34.7166 35.2104 35.3498 35.836 35.3498 36.6227C35.3498 36.6227 35.3498 36.6227 35.3498 45.2286C35.3498 46.1669 35.9735 46.7925 36.7579 46.7925H41.0012C41.7856 46.7925 42.0974 47.2569 41.4737 47.7308C41.4737 47.7308 41.4737 47.7308 30.7946 58.5261C30.4733 58.8389 30.0858 59 29.6889 59C29.3014 59 28.9045 58.8389 28.5926 58.5261C28.5926 58.5261 28.5926 58.5261 17.9135 47.7308C17.2803 47.2569 17.5922 46.7925 18.3766 46.7925C18.3766 46.7925 18.3766 46.7925 22.9317 46.7925C23.7256 46.7925 24.3493 46.1669 24.3493 45.2286C24.3493 45.2286 24.3493 45.2286 24.3493 36.6227C24.3493 35.836 24.9825 35.2104 25.7669 35.2104Z" fill="#ED1C24"/>
</svg>

<svg xmlns="http://www.w3.org/2000/svg" width="164" height="59" fill="#ed1c24" fill-rule="evenodd" xmlns:v="https://vecta.io/nano"><path d="M71.791 10.009h3.45c1.257 0 1.89.626 1.89 2.038v5.004h6.757v-5.004c0-1.412.624-2.038 2.041-2.038h3.298v3.289h-1.408l-.161.161v14.084h-3.771v-7.042H77.13v7.042h-3.77V13.459s0-.161-.161-.161h-1.408v-3.289zm27.331-.313l.085.009v3.611l-.085-.019c-2.826 0-5.028 2.351-5.028 5.327 0 3.128 2.202 5.63 5.028 5.63l.085-.019v3.611l-.085.009c-5.028 0-9.11-4.066-9.11-9.231 0-5.014 4.083-8.928 9.11-8.928z"/><path d="M99.207 9.705l1.748.171c4.149.815 7.277 4.36 7.277 8.748 0 4.512-3.128 8.198-7.277 9.042l-1.748.18v-3.611l1.919-.417c1.852-.853 3.184-2.853 3.184-5.194 0-2.237-1.332-4.113-3.184-4.91l-1.919-.398V9.705zm9.81.304h5.264 2.514v3.289h-.237-2.202V16.9h1.068 1.371v3.128h-.804-1.635v3.914c0 .161 0 .161.161.161h1.125 1.153v3.441h-.331-3.988c-1.257 0-1.881-.625-1.881-2.038V13.298h-1.578v-3.289z"/><path d="M116.795 10.009h.075c3.459 0 5.5 1.877 5.5 4.701 0 1.716-.784 2.815-1.568 3.602 1.417.626 2.353 2.189 2.353 3.905 0 3.289-2.514 5.327-6.124 5.327h-.066-.17v-3.44h.387c1.257 0 2.051-.787 2.051-2.038s-.794-2.038-2.051-2.038h-.35-.037V16.9h.075c1.106 0 1.73-.787 1.73-1.877 0-1.1-.624-1.725-1.73-1.725h-.038-.037v-3.289zm13.589 0h1.588.293v5.014c-.151.313-.312.777-.312 1.251l-1.257 3.602h1.333.236v3.279h-.85-1.654l-1.106 2.824c-.312 1.09-.936 1.564-2.193 1.564H124.1v-3.44h.784c.322 0 .322 0 .473-.161l5.027-13.932z"/><path d="M132.265 10.009h1.89l5.028 13.933c.151.161.151.161.463.161h.633v3.441h-2.202c-1.257 0-1.88-.474-2.202-1.725l-1.096-2.663h-2.117-.397v-3.279h1.569l-1.248-3.602c0-.474-.16-.938-.321-1.251V10.01zM71.791 32.547h13.666c1.257 0 2.041.626 2.041 2.038V46.48c0 .152 0 .152.161.152h1.257v3.45h-3.298c-1.418 0-2.041-.626-2.041-2.038V35.997s0-.161-.161-.161h-6.285v14.245H73.36V35.836h-1.569v-3.289zm27.019-.313l.076.009v3.611l-.076-.019c-2.835 0-5.028 2.351-5.028 5.327 0 3.128 2.192 5.63 5.028 5.63l.076-.019v3.611l-.076.01c-5.028 0-8.959-4.075-8.959-9.232 0-5.014 3.932-8.928 8.959-8.928z"/><path d="M98.886 32.244l1.805.171c4.224.815 7.229 4.36 7.229 8.748 0 4.512-3.005 8.198-7.229 9.042l-1.805.18v-3.611l1.994-.417c1.88-.853 3.118-2.853 3.118-5.194 0-2.237-1.238-4.113-3.118-4.91l-1.994-.398v-3.611zm9.819.303h3.459c1.257 0 1.88.626 1.88 2.038V46.48c0 .152 0 .152.161.152h4.555V32.547h3.771v14.084h4.555c.161 0 .161 0 .161-.152V34.585c0-1.412.624-2.038 1.88-2.038h3.459v3.289h-1.417c-.161 0-.161.161-.161.161v12.046c0 1.412-.624 2.038-1.881 2.038h-16.812c-1.408 0-2.041-.626-2.041-2.038V35.997s0-.161-.152-.161h-1.417v-3.289zm26.858 0h11.785c1.418 0 1.89.626 1.89 1.877V37.4h-3.459v-1.403c0-.161 0-.161-.16-.161h-2.193v14.245h-3.78V35.836h-2.193c-.16 0-.16 0-.16.161V37.4h-3.459v-2.976c0-1.251.472-1.877 1.729-1.877zm18.542 0h1.588.293v5.014c-.161.313-.312.777-.312 1.251l-1.257 3.602h1.323.246v3.279h-.851-1.663l-1.096 2.663c-.312 1.251-.945 1.725-2.202 1.725h-2.353v-3.45h.784c.321 0 .321 0 .473-.152l5.027-13.933z"/><path d="M155.986 32.547h1.881l5.037 13.933c.151.152.151.152.472.152H164v3.45h-2.202c-1.257 0-1.881-.474-2.202-1.725l-1.096-2.663h-2.117-.397v-3.279h1.569l-1.257-3.602c0-.474-.151-.938-.312-1.251v-5.014zM47.579 17.468c.179-.057.416.057.652.37L58.91 28.32c.624.625.624 1.573 0 2.038L48.231 41.001c-.236.313-.473.389-.652.294s-.293-.37-.293-.768V18.15c0-.389.113-.626.293-.682zM29.311 0h.756l.728.303L41.786 11.26c.472.626.312 1.099-.473 1.099h-4.555a1.4 1.4 0 0 0-1.408 1.412v8.132c0 .787-.633 1.412-1.578 1.412h-8.005a1.41 1.41 0 0 1-1.418-1.412v-8.132c0-.787-.624-1.412-1.418-1.412h-4.867c-.784 0-.945-.474-.473-1.099l11-10.957.718-.303zM12.092 17.231c.198.095.321.37.321.768V40.84c0 .398-.123.635-.321.711-.189.076-.463 0-.784-.237L.468 30.358c-.624-.464-.624-1.412 0-2.038l10.84-10.795c.321-.313.595-.389.784-.294zM25.767 35.21h8.005c.945 0 1.578.626 1.578 1.412v8.606c0 .938.624 1.564 1.408 1.564h4.243c.784 0 1.096.464.473.938L30.795 58.526c-.321.313-.709.474-1.106.474-.387 0-.784-.161-1.096-.474L17.914 47.731c-.633-.474-.321-.938.463-.938h4.555c.794 0 1.418-.626 1.418-1.564v-8.606a1.41 1.41 0 0 1 1.418-1.412z"/></svg>
